X:1
T:James Gibb editions
T:In omnem terram - Anerio
T:#
%%score [ 1 2 3 4 ]
L:1/8
Q:1/4=84
M:4/4
K:D
V:1 treble nm="Alto I" snm="A I"
V:2 treble nm="Alto II" snm="A II"
V:3 treble-8 nm="Tenor" snm="T"
V:4 bass nm="Bass" snm="B"
V:1
"^In omnem terram""^Giovanni Francesco Anerio\n(1567-1630)""^Romans 10:18" A4 A2 A2 | (B3 A G4) | %2
w: In o- mnem|ter\- * *|
 FF E2 D2 z A | G F2 E2 E E2 | (F4 G3 F) |[M:4/4] E4 F4 | A3 B GAFE | (^D E2 D) E2 z B | %8
w: ram ex- i- vit, ex-|i- vit so- nus e-|o\- * *|* rum:|et in fi- nes or- bis|ter\- * * rae ver-|
 AF (A4 ^G2) | A2 E3 FDE | CB, C2 D2 z F | EC (E4 ^D2) | %12
w: ba e- o\- *|rum, et in fi- nes|or- bis ter- rae ver-|ba e- o\- *|
 E2[Q:1/4=83] z2[Q:1/4=82] z2[Q:1/4=81] z E[Q:1/4=81] | %13
w: rum ver-|
[Q:1/4=80] D[Q:1/4=79]B,[Q:1/4=79] (D4[Q:1/4=76] C2)[Q:1/4=79][Q:1/4=78][Q:1/4=78][Q:1/4=78][Q:1/4=77][Q:1/4=77] | %14
w: ba e- o\- *|
[Q:1/4=74] !fermata!D8 |] %15
w: rum.|
V:2
 F4 E2 F2 | (D4 E4) | A,A G2 F2 E2 | D2 C2 B,4 | D2 A2 B4 |[M:4/4] A8 | F3 G EG^DE | F4 EGFD | %8
w: In o- mnem|ter\- *|ram ex- i- vit, ex-|i- vit so-|nus e- o-|rum:|et in fi- nes or- bis|ter- rae ver- ba e-|
 (F3 E D4) | E2 A3 AGG | FE F2 F2 z2 | z8 | z2 B2 AF (A2 | AG/F/ GF/E/ FE/D/ E2) | !fermata!F8 |] %15
w: o\- * *|rum, et in fi- nes|or- bis ter- rae||ver- ba e- o\-||rum.|
V:3
 d4 c2 d2 | (Bc d4 c2) | dD (E/F/G/A/ B/c/d) cc | B2 A (A2 ^G/F/ G2) | A3 d (Bc d2- | %5
w: In o- mnem|ter\- * * *|ram ex- i\- * * * * * * vit, ex-|i- vit so\- * * *|nus e- o\- * *|
[M:4/4][K:treble-8] d2 c2) d4 | d3 B =cABc | B4 EedB | (d3 c B4) | A2 c3 dBB | ^AB A2 Bdc=A | %11
w: * * rum:|et in fi- nes or- bis|ter- rae ver- ba e-|o\- * *|rum, et in fi- nes|or- bis ter- rae ver- ba e-|
 (c3 B A4) | BGFD F2 FA | (D4 A4) | !fermata!A8 |] %15
w: o\- * *|rum ver- ba e- o- rum e-|o\- *|rum.|
V:4
 D4 A,2 F,2 | (G,3 F, E,4) | D,2 z2 z2 A,,2 | (B,,/C,/D,/E,/ F,/G,/A,) E,4 | D,2 D,D, (G,4- | %5
w: In o- mnem|ter\- * *|ram ex-|i\- * * * * * * vit|so- nus e- o\-|
[M:4/4] A,4 D,4 | z8 | z8 | z8 | z2 A,3 F,G,E, | F,G, F,2 B,,B,A,F, | A,3 G, F,4) | %12
w: * rum:||||et in fi- nes|or- bis ter- rae ver- ba e-|o\- * *|
 E,E,D,B,, (D,3 C, | B,,4 A,,4) | !fermata!D,8 |] %15
w: rum ver- ba e- o\- *||rum.|

